X:1
T:Rejoice in the Lord Always
T:Text: Philippians 4:4 Tune: traditional Harmonization under copyright; for copyrighted material see Psalter Hymnal 228
T:PM REJOICE www.hymnary.org//text/rejoice_in_the_lord_always_and_again_i_s
T:Rejoice in the Lord Always
T:This hymn is in the public domain. You may freely use this score for personal and congregational worship. If you reproduce the score, please credit Hymnary.org as the source. 
T:This hymn is in the public domain. You may freely use this score for personal and congregational worship. If you reproduce the score, please credit Hymnary.org as the source. 
Z:This hymn is in the public domain. You may freely use this score for personal and congregational worship. If you reproduce the score, please credit Hymnary.org as the source.
L:1/8
M:4/4
K:F
V:1 treble nm="SOPRANO ALTO" snm="S. A."
V:1
"^Capo 3:""^May be sung as a round" C2 |"^F(D)" F2 FF (F2 G2) | (A2 G2) F2 AA | %3
w: Re-|joice in the Lord *|al- * ways, and a-|
"^C7(A7)" G2 F2 G2 A2 |"^F(D)" F6 | C2 | A2 AA (A2 B2) | (c2 B2) A2 cc |"^C7(A7)" B2 A2 B2 c2 | %9
w: gain I say, Re-|joice!|Re-|joice in the Lord *|al- * ways and a-|gain I say, Re-|
"^F(D)" A6 | c2 | c6 c2 | c6 cc |"^C7(A7)" B2 A2 B2 c2 |"^F(D)" A6 |1 c2 | c6 c2 | c6 cc | %18
w: joice!|Re-|joice! Re-|joice! And a-|gain I say, Re-|joice!|Re-|joice! Re-|joice! And a-|
"^C7(A7)" C2 C2 D2 E2 |"^F(D)" F6 x2 |] %20
w: gain I say, Re-|joice!|

